tools/download-figma-icons/icons/outlined-large/heat-pipes.svg

<svg width="64" height="64" viewBox="0 0 64 64" fill="none" xmlns="http://www.w3.org/2000/svg">
<path d="M54.5 64H6.5C4.77609 64 3.12279 63.3152 1.90381 62.0962C0.684819 60.8772 0 59.2239 0 57.5C0 55.7761 0.684819 54.1228 1.90381 52.9038C3.12279 51.6848 4.77609 51 6.5 51H46.5C47.4283 51 48.3185 50.6312 48.9749 49.9749C49.6312 49.3185 50 48.4283 50 47.5C50 46.5717 49.6312 45.6815 48.9749 45.0251C48.3185 44.3688 47.4283 44 46.5 44H6.5C4.77609 44 3.12279 43.3152 1.90381 42.0962C0.684819 40.8772 0 39.2239 0 37.5C0 35.7761 0.684819 34.1228 1.90381 32.9038C3.12279 31.6848 4.77609 31 6.5 31H46.5C47.4283 31 48.3185 30.6313 48.9749 29.9749C49.6312 29.3185 50 28.4283 50 27.5C50 26.5717 49.6312 25.6815 48.9749 25.0251C48.3185 24.3687 47.4283 24 46.5 24H6.5C4.78711 23.9923 3.14584 23.3118 1.92997 22.1053C0.714089 20.8987 0.0209676 19.2628 0 17.55L0 17.4C0.0288237 15.6943 0.726032 14.0681 1.94163 12.8712C3.15722 11.6743 4.79406 11.0024 6.5 11H25C26.4579 10.9974 27.8553 10.417 28.8862 9.38617C29.917 8.35529 30.4974 6.95788 30.5 5.5V1.5C30.5 1.10218 30.658 0.720644 30.9393 0.43934C31.2206 0.158035 31.6022 0 32 0C32.3978 0 32.7794 0.158035 33.0607 0.43934C33.342 0.720644 33.5 1.10218 33.5 1.5V5.5C33.4974 7.75353 32.601 9.914 31.0075 11.5075C29.414 13.101 27.2535 13.9974 25 14H6.5C5.57174 14 4.6815 14.3687 4.02513 15.0251C3.36875 15.6815 3 16.5717 3 17.5C3 18.4283 3.36875 19.3185 4.02513 19.9749C4.6815 20.6313 5.57174 21 6.5 21H46.5C48.2239 21 49.8772 21.6848 51.0962 22.9038C52.3152 24.1228 53 25.7761 53 27.5C53 29.2239 52.3152 30.8772 51.0962 32.0962C49.8772 33.3152 48.2239 34 46.5 34H6.5C5.57174 34 4.6815 34.3688 4.02513 35.0251C3.36875 35.6815 3 36.5717 3 37.5C3 38.4283 3.36875 39.3185 4.02513 39.9749C4.6815 40.6312 5.57174 41 6.5 41H46.5C48.2239 41 49.8772 41.6848 51.0962 42.9038C52.3152 44.1228 53 45.7761 53 47.5C53 49.2239 52.3152 50.8772 51.0962 52.0962C49.8772 53.3152 48.2239 54 46.5 54H6.5C5.57174 54 4.6815 54.3688 4.02513 55.0251C3.36875 55.6815 3 56.5717 3 57.5C3 58.4283 3.36875 59.3185 4.02513 59.9749C4.6815 60.6312 5.57174 61 6.5 61H54.5C56.2231 60.9974 57.8749 60.3117 59.0933 59.0933C60.3117 57.8749 60.9974 56.2231 61 54.5V1.5C61 1.10218 61.158 0.720644 61.4393 0.43934C61.7206 0.158035 62.1022 0 62.5 0C62.8978 0 63.2794 0.158035 63.5607 0.43934C63.842 0.720644 64 1.10218 64 1.5V54.5C63.9974 57.0187 62.9956 59.4336 61.2146 61.2146C59.4336 62.9956 57.0187 63.9974 54.5 64Z" fill="black"/>
</svg>

<svg width="64" height="64" viewBox="0 0 64 64" fill="none" xmlns="http://www.w3.org/2000/svg"><path d="M54.5 64h-48a6.5 6.5 0 1 1 0-13h40a3.5 3.5 0 0 0 0-7h-40a6.5 6.5 0 1 1 0-13h40a3.5 3.5 0 1 0 0-7h-40A6.53 6.53 0 0 1 0 17.55v-.15A6.51 6.51 0 0 1 6.5 11H25a5.51 5.51 0 0 0 5.5-5.5v-4a1.5 1.5 0 1 1 3 0v4A8.51 8.51 0 0 1 25 14H6.5a3.5 3.5 0 1 0 0 7h40a6.5 6.5 0 1 1 0 13h-40a3.5 3.5 0 0 0 0 7h40a6.5 6.5 0 1 1 0 13h-40a3.5 3.5 0 0 0 0 7h48a6.51 6.51 0 0 0 6.5-6.5v-53a1.5 1.5 0 1 1 3 0v53a9.51 9.51 0 0 1-9.5 9.5Z" fill="currentColor"/></svg>
